src/icons/flags/es-pv.svg

<svg xmlns="http://www.w3.org/2000/svg" id="flag-icons-es-pv" viewBox="0 0 640 480">
  <path fill="#D52B1E" d="m0 0h640v480h-640z" />
  <path fill="#009B48" d="m0 0h53.1l133.4 100.1c73.4 55 133.4 100 133.5 100 0.1 0 60.1-45 266.9-200.1h53.1v39.9l-133.4 100c-73.4 55-133.4 100.1-133.4 100.1 0 0 60 45.1 266.8 200.2v39.8h-53.1l-133.4-100c-73.4-55.1-133.4-100.1-133.5-100.1-0.1 0-60.1 45-266.9 200.1h-53.1v-39.8l133.4-100.1c73.4-55 133.4-100.1 133.4-100.1 0 0-60-45.1-266.8-200.1v-20z" />
  <path fill="#FFF" d="m288.1 0h63.8v208.1h288.1v63.8h-288.1v208.1h-63.8v-208.1h-288.1v-63.8h288.1v-104z" />
</svg>

<svg xmlns="http://www.w3.org/2000/svg" id="flag-icons-es-pv" viewBox="0 0 640 480">
  <path fill="#D52B1E" d="M0 0h640v480H0z"/>
  <path fill="#009B48" d="M0 0h53.1l133.4 100.1 133.5 100L586.9 0H640v39.9l-133.4 100L373.2 240 640 440.2V480h-53.1L453.5 380A69411.7 69411.7 0 0 0 320 279.9L53.1 480H0v-39.8l133.4-100.1L266.8 240 0 39.9v-20z"/>
  <path fill="#FFF" d="M288.1 0h63.8v208.1H640v63.8H351.9V480h-63.8V271.9H0v-63.8h288.1v-104z"/>
</svg>
